X:29
T:Wild basen
R:Pols
C:Erik Jensen
S:For Borgere og Bnder p.468
H:1790
N:Erik Jensens nodebog 1790 nr.7
O:Danmark
Z:<anamnese@laposte.net> -- http://anamnese.fr.st
M:3/4
L:1/8
Q:1/4=140
K:G
|: cAdf e2 | E2.G2.A2 | dAdfed | c4 A2 :|
|: FDGB.A2 | A,2.C2.D2| GDGBAG | F4 D2 :|
